X: 221
T: Money in both Pockets
%R: jig
B: "Twenty Four Country Dances for the Year 1793", Preston & Son, eds. p.91
F: http://www.vwml.org/browse/browse-collections-dance-tune-books/browse-prestons1793# 2014-8-7
Z: 2014 John Chambers <jc:trillian.mit.edu>
N: The f in bar 12 appears erased, but its shadow and stem give it away (and it's the usual note).
M: 6/8
L: 1/8
K: D
A |\
d2F FGF | ABA AGF | d2F FGF | ABA gfe |\
d2F FGF | ABA AGF | EFE EFA | BcB B2 :|
|: A |\
dfa afd | cea ecA | dfa afd | g3 f2a |\
agf bag | agf ede | fdB AFA | BcB B2 :|
% = = = = = = = = = = = = = = = = = = = = = = = = =
%%begintext align
%% The 1st & 2d Cu.s foot it & change sides .|
%% Foot it & change sides back again :| Lead
%% down the middle up again & cast off :|.
%% Right & left at top :|:
%%endtext
% = = = = = = = = = = = = = = = = = = = = = = = = =

%%sep 1 1 500
%%sep 1 1 500
